iphone/Maps/Images.xcassets/Interface/Search/Categories/hotel.imageset/hotel_light.svg

<svg height="28" viewBox="0 0 28 28" width="28" xmlns="http://www.w3.org/2000/svg"><g fill="none" opacity=".898664"><circle cx="14" cy="14" fill="#664e42" fill-rule="evenodd" r="14"/><path d="m10.2879 14.1061667c1.2324667 0 2.2272833-.9948517 2.2272833-2.2272834 0-1.2324666-.9948516-2.2272833-2.2272833-2.2272833-1.23246667 0-2.22728333.9948517-2.22728333 2.2272833 0 1.2324667.99485166 2.2272834 2.22728333 2.2272834zm8.9091333-4.4545667h-4.4545666c-.8166667 0-1.4848167.668185-1.4848167 1.4848167v3.7121h-5.93938333v-5.93938337c0-.40833333-.33408667-.74242-.74242-.74242-.40833334 0-.74242.33408667-.74242.74242v9.65148337c0 .4083333.33408666.74242.74242.74242.40833333 0 .74242-.3340867.74242-.74242v-1.4848167h13.36416663v1.4848167c0 .4083333.3340867.74242.74242.74242.4083334 0 .74242-.3340867.74242-.74242v-5.9393834c0-1.6408-1.32895-2.96974997-2.96975-2.96974997z" fill="#fff"/></g></svg>

<?xml version="1.0" encoding="UTF-8"?>
<svg width="28px" height="28px" viewBox="0 0 28 28" version="1.1" xmlns="http://www.w3.org/2000/svg" xmlns:xlink="http://www.w3.org/1999/xlink">
    <title>hotel_light</title>
    <g id="hotel_light" stroke="none" fill="none" fill-rule="evenodd">
        <path d="M14,0 C21.7319865,0 28,6.2680135 28,14 C28,21.7319865 21.7319865,28 14,28 C6.2680135,28 0,21.7319865 0,14 C0,6.2680135 6.2680135,0 14,0 Z M6.57584667,8.16671333 C6.16751333,8.16671333 5.83342667,8.5008 5.83342667,8.90913333 L5.83342667,18.5606167 C5.83342667,18.96895 6.16751333,19.3030367 6.57584667,19.3030367 C6.98418,19.3030367 7.31826667,18.96895 7.31826667,18.5606167 L7.31826667,17.0758 L20.6824333,17.0758 L20.6824333,18.5606167 C20.6824333,18.96895 21.01652,19.3030367 21.4248533,19.3030367 C21.8331867,19.3030367 22.1672733,18.96895 22.1672733,18.5606167 L22.1672733,12.6212333 C22.1672733,10.9804333 20.8383233,9.65148333 19.1975233,9.65148333 L14.7424667,9.6516 C13.9258,9.6516 13.25765,10.319785 13.25765,11.1364167 L13.25765,14.8485167 L7.31826667,14.8485167 L7.31826667,8.90913333 C7.31826667,8.5008 6.98418,8.16671333 6.57584667,8.16671333 Z M10.2879,9.6516 C9.05543333,9.6516 8.06061667,10.6464517 8.06061667,11.8788833 C8.06061667,13.11135 9.05546833,14.1061667 10.2879,14.1061667 C11.5203667,14.1061667 12.5151833,13.111315 12.5151833,11.8788833 C12.5151833,10.6464167 11.5203317,9.6516 10.2879,9.6516 Z" id="Shape" fill="#664E42"></path>
    </g>
</svg>
